X: 01002
T: AAACHEE'S REEL
C: Bob McQuillen 15 May '73
N: Happy Birthday, Michael Walsh!
B: Bob's Note Book 1&2 #2
R: reel
Z: 2005 John Chambers
M: C
L: 1/8
K: A
(3efg \
| a2ed cAce | eaae cAce | a2ed cAce | d2B2 B2ef |
| a2ed cAce | eaae cAce | defg afed | c2A2 A2  :|
|: ce \
| f2cB AFce | f2cB ABce | f2cB AFGA | G2E2 E2ce |
| f2cB AFce | fecB ABce | fefg afed | c2A2 A2  :|
%%begintext align
%% Happy Birthday, Michael Walsh!
%%endtext

%%sep 1 1 500

%%sep 1 1 500

